X: 1
T: Maggie's Pancakes
C: Stuart Morrison
R: reel
Z: 2013 John Chambers <jc:trillian.mit.edu>
S: PDF image from Lance Ramshaw
S: page from Concord Slow Scottish Session collection
N: "Presented by H.Cassel, BHSFS 8/03 Chds B. BcO."
M: C|
L: 1/8
K: Bm
|:\
"Bm"fB B/B/B fgfe | "G"dB B/B/B GBdB | "A"cAAd AAec | "A"AfdB "F#m"ecAe |
"Bm"fB B/B/B fgfe | "G"dB B/B/B GBdB | "A"cABc ABce- | "F#m"efec "Bm"Bcde :|
|:\
"Bm"f2dB "G"GBdB | "A"caec "Bm"dB B/B/B | "Bm"f2dB "G"GBdB | "A"cAec "Bm"Bcde |
"D"fd d/d/d fgfe | "Bm"dB B/B/B "G"GBdB | "A"cAdA ecAa- | "F#m"afec "Bm"HBcde :|
